icons/line/mail-open.svg

<svg width="24" height="24" viewBox="0 0 24 24" fill="none" xmlns="http://www.w3.org/2000/svg">
<path d="M3 10L3 19C3 20.1046 3.89543 21 5 21L19 21C20.1046 21 21 20.1046 21 19L21 10M3 10L3 9C3 7.89543 3.89543 7 5 7L6 7M3 10L6 12.5M21 10L21 9C21 7.89543 20.1046 7 19 7L18 7M21 10L18 12.5M6 7L6 12.5M6 7L6 5C6 3.89543 6.89543 3 8 3L16 3C17.1046 3 18 3.89543 18 5L18 7M18 7L18 12.5M18 12.5L13.2 16.1C12.4889 16.6333 11.5111 16.6333 10.8 16.1L6 12.5M10 7L14 7M10 10L14 10" stroke="currentColor" stroke-width="2" stroke-linecap="round" stroke-linejoin="round"/>
</svg>

<svg width="24" height="24" fill="none" xmlns="http://www.w3.org/2000/svg"><path d="M3 10v9a2 2 0 002 2h14a2 2 0 002-2v-9M3 10V9a2 2 0 012-2h1m-3 3l3 2.5M21 10V9a2 2 0 00-2-2h-1m3 3l-3 2.5M6 7v5.5M6 7V5a2 2 0 012-2h8a2 2 0 012 2v2m0 0v5.5m0 0l-4.8 3.6a2 2 0 01-2.4 0L6 12.5M10 7h4m-4 3h4" stroke="currentColor" stroke-width="2" stroke-linecap="round" stroke-linejoin="round"/></svg>
